src/assets/svg/icons/fa/nuevos/classic/light/rupiah-sign classic light.svg

<svg xmlns="http://www.w3.org/2000/svg" viewBox="0 0 512 512"><!--! Font Awesome Pro 6.4.0 by @fontawesome - https://fontawesome.com License - https://fontawesome.com/license (Commercial License) Copyright 2023 Fonticons, Inc. --><path d="M0 80C0 53.5 21.5 32 48 32h64c79.5 0 144 64.5 144 144c0 65.6-43.9 121-103.9 138.3l54.8 144c3.1 8.3-1 17.5-9.3 20.6s-17.5-1-20.6-9.3L119.9 319.8c-2.6 .1-5.3 .2-7.9 .2H32V464c0 8.8-7.2 16-16 16s-16-7.2-16-16V304 80zM32 288h80c61.9 0 112-50.1 112-112s-50.1-112-112-112H48c-8.8 0-16 7.2-16 16V288zm288-80V352h80c44.2 0 80-35.8 80-80s-35.8-80-80-80H336c-8.8 0-16 7.2-16 16zm16-48h64c61.9 0 112 50.1 112 112s-50.1 112-112 112H320V496c0 8.8-7.2 16-16 16s-16-7.2-16-16V208c0-26.5 21.5-48 48-48z"/></svg>

<svg xmlns="http://www.w3.org/2000/svg" viewBox="0 0 512 512"><path d="M.0003 80C.0003 53.49 21.49 32 48 32H112C191.5 32 256 96.47 256 176C256 241.6 212.1 296.1 152.1 314.3L206.1 458.3C210.1 466.6 205.1 475.8 197.7 478.1C189.4 482.1 180.2 477.1 177 469.7L119.9 319.8C117.3 319.9 114.7 320 112 320H32V464C32 472.8 24.84 480 16 480C7.164 480 0 472.8 0 464L.0003 80zM32 288H112C173.9 288 224 237.9 224 176C224 114.1 173.9 64 112 64H48C39.16 64 32 71.16 32 80V288zM400 160C461.9 160 512 210.1 512 272C512 333.9 461.9 384 400 384H320V496C320 504.8 312.8 512 304 512C295.2 512 288 504.8 288 496V208C288 181.5 309.5 160 336 160H400zM320 352H400C444.2 352 480 316.2 480 272C480 227.8 444.2 192 400 192H336C327.2 192 320 199.2 320 208V352z"/></svg>
